www/static/icons/general.svg

<svg width="50" height="50" viewBox="0 0 50 50" fill="none" xmlns="http://www.w3.org/2000/svg">
<rect width="50" height="50" rx="6" fill="#FAF9FB"/>
<path fill-rule="evenodd" clip-rule="evenodd" d="M10.4705 7.10822C15.0529 8.86103 22.0661 9.38516 25 9.42812L25 29.6628C24.3946 29.3621 22.8205 28.7607 21.3676 28.7607C21.8799 26.6126 22.3735 21.4916 20.25 18.1922C18.9926 17.9344 15.6676 17.7282 12.4264 18.9655C13.3578 19.9107 16.1985 21.8009 20.1102 21.8009C20.6691 22.875 21.5632 26.0283 20.6691 30.0495C20.6225 30.3073 20.8088 30.8228 21.9264 30.8228C23.3235 30.8228 24.4411 31.2094 24.4411 33.2716V37.5247C23.9349 37.9918 21.9188 39.0461 17.8804 39.5684C15.8158 35.6324 12.3698 33.1977 10.4705 32.3694C11.0759 30.2643 11.3647 24.7395 7.67642 19.481C3.98819 14.2226 8.0024 9.04147 10.4705 7.10822ZM18.7196 41.4776C19.9284 41.0252 22.3452 40.3602 25 40.3602L25 45C22.3176 45 20.1568 44.5704 19.4117 44.2267C19.2657 43.254 19.0277 42.3373 18.7196 41.4776ZM39.5294 7.10822C34.947 8.86103 27.9338 9.38516 25 9.42812L25 29.6628C25.6054 29.3621 27.1794 28.7607 28.6323 28.7607C28.1201 26.6126 27.6264 21.4916 29.75 18.1922C31.0073 17.9344 34.3323 17.7282 37.5735 18.9655C36.6421 19.9107 33.8014 21.8009 29.8897 21.8009C29.3308 22.875 28.4367 26.0283 29.3308 30.0495C29.3774 30.3073 29.1911 30.8228 28.0735 30.8228C26.6764 30.8228 25.5588 31.2094 25.5588 33.2716V37.5247C26.065 37.9918 28.0811 39.0461 32.1195 39.5684C34.1841 35.6324 37.6301 33.1977 39.5294 32.3694C38.924 30.2643 38.6353 24.7395 42.3235 19.481C46.0117 14.2226 41.9975 9.04147 39.5294 7.10822ZM31.2803 41.4776C30.0715 41.0252 27.6547 40.3602 25 40.3602L25 45C27.6823 45 29.8431 44.5704 30.5882 44.2267C30.7342 43.254 30.9722 42.3373 31.2803 41.4776Z" fill="url(#paint0_linear)"/>
<defs>
<linearGradient id="paint0_linear" x1="25" y1="7.10822" x2="25" y2="45" gradientUnits="userSpaceOnUse">
<stop stop-color="#6182ED"/>
<stop offset="1" stop-color="#29357F"/>
</linearGradient>
</defs>
</svg>

<svg width="50" height="50" fill="none" xmlns="http://www.w3.org/2000/svg"><rect width="50" height="50" rx="6" fill="#FAF9FB"/><path fill-rule="evenodd" clip-rule="evenodd" d="M10.47 7.108C15.053 8.861 22.066 9.385 25 9.428v20.235c-.605-.3-2.18-.902-3.632-.902.512-2.148 1.006-7.27-1.118-10.569-1.257-.258-4.582-.464-7.824.773.932.946 3.772 2.836 7.684 2.836.56 1.074 1.453 4.227.56 8.248-.048.258.139.774 1.256.774 1.398 0 2.515.386 2.515 2.449v4.253c-.506.467-2.522 1.521-6.56 2.043-2.065-3.936-5.511-6.37-7.41-7.199.605-2.105.894-7.63-2.795-12.888-3.688-5.258.326-10.44 2.794-12.373zm8.25 34.37c1.208-.453 3.625-1.118 6.28-1.118V45c-2.682 0-4.843-.43-5.588-.773a14.527 14.527 0 00-.692-2.75zm20.81-34.37C34.946 8.861 27.933 9.385 25 9.428v20.235c.605-.3 2.18-.902 3.632-.902-.512-2.148-1.006-7.27 1.118-10.569 1.257-.258 4.582-.464 7.824.773-.932.946-3.773 2.836-7.684 2.836-.56 1.074-1.453 4.227-.56 8.248.047.258-.139.774-1.256.774-1.398 0-2.515.386-2.515 2.449v4.253c.506.467 2.522 1.521 6.56 2.043 2.065-3.936 5.511-6.37 7.41-7.199-.605-2.105-.894-7.63 2.794-12.888 3.689-5.258-.325-10.44-2.794-12.373zm-8.25 34.37c-1.209-.453-3.625-1.118-6.28-1.118V45c2.682 0 4.843-.43 5.588-.773.146-.973.384-1.89.692-2.75z" fill="url(#paint0_linear)"/><defs><linearGradient id="paint0_linear" x1="25" y1="7.108" x2="25" y2="45" gradientUnits="userSpaceOnUse"><stop stop-color="#6182ED"/><stop offset="1" stop-color="#29357F"/></linearGradient></defs></svg>
